!!!OTL: "Fischerliedchen" HAHL MI DEN SAHLHUND UT DEN STRANNE
!!!ARE: Europa, Mitteleuropa, Deutschland, Ruegen
!!!SCT: Z1303
!!!YEM: Copyright 1995, estate of Helmut Schaffrath.
**kern
*ICvox
*Ivox
*M3/4
*k[f#]
*G:
=1
{4g
4d
8e
8f#
=2
4g
4d
8e
8f#
=3
4g
4d
4g
=4
8a
8b
4g}
{4b
=5
8dd
8cc
4b
4b
=6
8cc
8b
4b
4a
=7
8b
8a
4g
4g
=8
8a
8g
4f#
4f#}
=9
{4g
4d
8e
8f#
=10
4g
4d
8e
8f#
=11
4g
4g
4a
=12
8a
8b
4g
4r}
==
!!!AGN: Handwerker -, Bauern - Lied
!!!ONB: ESAC (Essen Associative Code) Database: ZUCCAL
!!!AMT: simple triple
!!!AIN: vox
!!!EED: Helmut Schaffrath
!!!EEV: 1.0
*-
